X:124010
T:Mairi's Wedding 
C: John Roderick Bannerman (1934)
B: https://en.wikipedia.org/wiki/Mairi%27s_Wedding
O:Kevin Fraser
Z:Kevin Fraser
Q:1/4=90
K:HP
M:2/4
L:1/8
R:March
U: R = ///
U: r = //
U: V = !accent!
V:M gstem=up stem=down name="Melody" sname="Melody"
V:H gstem=up stem=down name="Harmony"
V:C gstem=up stem=down name="C-Harmony"
V:S gstem=up stem=down dyn=up stafflines=1 clef=perc middle=G name="Snare" sname="Snare"" sname=snare
V:B gstem=up stem=down clef=none dyn=up name="Bass"
V:T gstem=up stem=down clef=none dyn=up name="Tenor"
V:BB gstem=up stem=down name="Brass Bass" sname="BASS" transpose=-1  octave=-2 clef=bass
V:BC gstem=up stem=down name="Brass Chord" sname="Chord" transpose=-1
V:BD gstem=up stem=down name="Brass Chord 2" sname="Chord 2" transpose=-1
% I:MIDI=program 110
%%score {M BC BD BB }
%%score {M }
% %landscape
%%equalbars
%%barsperstaff 4
[V:M]          |:  {g}GA {GAG}AB | {Gdc}de {gfg}f2| {gef}ed {gBd}Bd | {gfg}fe {gfg}f2      | $
w:       |  hem en harin o | tra e chete   | hete a hoto a  | chete e chete |
[V:M]          |  {g}GA {GAG}AB | {Gdc}de {gfg}f2| {gef}ed {gBd}B{e}G | {g}A2 {GAG}A2 :| $
w:          hem en harin o | tra e chete   | hete a hoto um | hen    rarin :|
[V:M]	  |: {g}fa {g}a2| {g}ag {fg}f2  | {gef}ed {gBd}Bd | {gfg}fe {gfg}f2      | $
w:            che I li   | li    di  chete  | hete a    hoto a  |  chete e chete | 
[V:M]          [1  {g}fa {g}a2| {g}ag {fg}f2  |{gef}ed {gBd}B{e}G | {g}A2 {GAG}A2 :| $
w:             che I li   | li   di    vete  | hete a hoto um | hen rarin :|
[V:M]	  [2  {g}GA {GAG}AB | {Gdc}de {gfg}f2|{gef}ed {gBd}B{e}G | {g}A2 {GAG}A2 || $
w:          hem en harin o | hada e vete  | hete a hoto  um | hen     rarin |]
[V:BB][K:Fmix] |: B2 B2 | e2 g2| F2 F2 |e2 e2 |
[V:BB] | B2 B2 | e2 g2| F2 F2 |B2 B2 :|
[V:BB] |: B2 B2 | B2 e2| e2 a2 |g2 g2 |
[V:BB]  [1 B2 B2 | B2 g2| c2 c2 |B2 B2 :|
[V:BB]  [2 B2 B2 | B2 g2| A2 A2 |B2 B2 ||
[V:BC][K:Fmix] |: e2 g>g | gg gg/2g/2 | a z gg | ee ee | 
[V:BC] | gz g>g | gg gg/2g/2 | g z gg | gg g z :|
[V:BC] |: b>b b(b/2c'/2) | b(a/2g/2) g z | fe ce | gf (g/2b/2) z | 
[V:BC]  [1 b>b b(b/2c'/2) | b(a/2g/2) g z | fe cA | B2 B2 :| 
[V:BC]  [2 B>B Bc | e(f/2g/2) g z | fe ce | gf (g<b) || 
[V:BD][K:Fmix] |: g>e gg | gf/2e/2 e2 | fe AB | ed (e<g) | 
[V:BD] | g>e gg | gf/2e/2 e2 | fe cA | B2 B z :|
[V:BD] |: e>e ef | g(a/2b/2) b z | ag eg | ga b z | 
[V:BD]  [1 e>e ee | ga b z | c'b ae | f2 f2 :| 
[V:BD]  [2 g>e gg | gf/2e/2 e2 | fe cA | B2 B z ||W:
W: ASPD plays this with Teribus
W: 
W: ASPD used to play this with Barren Rocks of Aden
W:
W: Chorus:
W:Step we gaily on we go
W:Heel for heel and toe for toe
W:Arm in arm and row on row
W:All for Mairi's wedding.
W:
W:Over hillways up and down
W:Myrtle green and bracken brown
W:Past the shieling through the town
W:All for sake of Mairi.
W:
W:Red her cheeks as rowans are
W:Bright her eye as any star
W:Fairest of them all by far
W:Is my darlin' Mairi.
W:
W:Plenty herring, plenty meal
W:Plenty peat to fill her creel
W:Plenty bonny bairns as weel
W:That's the toast of Mairi.

V:S
|:         {A}c(RA Vc)(RA  | Vc/)>A/c/>c/   {c}A(RA     | c)(RA Vc)(RA          | Vc/)>A/c/>c/   {c}A(RA |
V:S
           c)(RA Vc)(RA     | Vc/)>A/c/>c/   {c}A(RA     | Vc/)>A/c/>c/   c/>VA/c/>c/  |  {A}c(RA A2) :|
V:S
|:         (RAVRc A/)>c/A/>c/ | (RAVRc A){A}c | (RAVRc A/)>c/A/>c/ | (RAVRc A){A}c |
V:S
           [1(RAVRc A/)>c/A/>c/ | (RAVRc A){A}c | Vc/>A/c/>c/   c/>VA/c/>c/  |  {A}c(RA A2) :|
V:S
           [2(RAVRc A/)>c/A/>c/ | (RAVRc A){A}c | Vc/>A/c/>c/   c/>VA/c/>c/  |  {A}c(RA A2) :|



